X:30071
T: Duke of Kent
S: A Ogilvie Grey Album
N: Dance from Alexander Bowman Manuscript, Laing Collection
B: RSCDS 30-7
O: RSCDS 30-7
R: reel
Z: 2010 John Chambers <jc:trillian.mit.edu>
M: C|
L: 1/8
%--------------------
K: C
"A"\
|: "C"C2EC cCEC | "Dm"FEDE "G7"FDdD \
| "C"EDCD "A7"EFGE | "Dm"FD"G"GE "C"C2"fine"C2 :|
"B"\
|: "C"e2dc "Am"e2dc | "Dm"dcBc "G7"defd \
|1 "C"e2dc "F"Ac"C"Gc | "G7"edcB "C"c2c2 \
:|2 "C"ec"G"dB "Am"cA"G"BG | "F"AF"C"GE "Dm"FE"G7"DE |]
